chrome/icons/radio-bullet.svg

<svg width="16" height="16" viewBox="0 0 16 16" fill="none" xmlns="http://www.w3.org/2000/svg">
<g clip-path="url(#clip0_52_1132)">
<path d="M0 8V7.83333C0 6.75 0.215292 5.73263 0.645833 4.78125C1.07638 3.82988 1.65971 3 2.39583 2.29167C3.13196 1.58333 3.98263 1.02429 4.94792 0.614583C5.91321 0.204875 6.93054 0 8 0C9.11113 0 10.1528 0.208333 11.125 0.625C12.0972 1.04167 12.9445 1.61113 13.6667 2.33333C14.3889 3.05554 14.9583 3.90279 15.375 4.875C15.7917 5.84721 16 6.88888 16 8C16 9.11113 15.7917 10.1528 15.375 11.125C14.9583 12.0972 14.3889 12.9445 13.6667 13.6667C12.9445 14.3889 12.0972 14.9583 11.125 15.375C10.1528 15.7917 9.11113 16 8 16C6.88888 16 5.84721 15.7917 4.875 15.375C3.90279 14.9583 3.05554 14.3889 2.33333 13.6667C1.61113 12.9445 1.04167 12.0972 0.625 11.125C0.208333 10.1528 0 9.11113 0 8Z" fill="context-fill" fill-opacity="context-fill-opacity"/>
</g>
<defs>
<clipPath id="clip0_52_1132">
<rect width="16" height="16" fill="white"/>
</clipPath>
</defs>
</svg>

<svg xmlns="http://www.w3.org/2000/svg" width="16" height="16" fill="none" viewBox="0 0 16 16"><g clip-path="url(#a)"><path fill="context-fill" fill-opacity="context-fill-opacity" d="M0 8v-.167Q0 6.21.646 4.781a8 8 0 0 1 1.75-2.49A8.4 8.4 0 0 1 4.948.616 7.7 7.7 0 0 1 8 0q1.667 0 3.125.625t2.542 1.708a8 8 0 0 1 1.708 2.542Q16 6.333 16 8a7.85 7.85 0 0 1-.625 3.125 8 8 0 0 1-1.708 2.542 8 8 0 0 1-2.542 1.708A7.85 7.85 0 0 1 8 16a7.85 7.85 0 0 1-3.125-.625 8 8 0 0 1-2.542-1.708 8 8 0 0 1-1.708-2.542A7.85 7.85 0 0 1 0 8"/></g><defs><clipPath id="a"><path d="M0 0h16v16H0z"/></clipPath></defs></svg>
